X:1
T: Sir Charles Forbes of Newe
C:Alexander Walker
R:Strathspey
Q: 128
K:A
M:4/4
L:1/16
|:F2|EC3 A3C E4 E3F|EC3 A3C B,B3 B3c|EC3 A3C E4 E3c|defg agfe cA3 A3F|
EC3 A3C E4 E3A|cA3 e3A GB3 B3c|((3d2f2d2) B3d ((3c2e2c2) A3F|((3G2B2G2) E3G AA,3 A,2e2|
dcBA E3A F3A E3A|c3A e3c fB3 B3e|agfe c3e A3e c3A|((3d2e2f2) ((3e2f2g2) aA3 A3e|
dcBA E3A F3A E3c|d3B c3A GB3 B3d|ce3 e3c defg a3f|e3c d3B cA3 A2:|
